exported-svg/message-square.svg

<svg height="24" viewBox="0 0 24 24" width="24" xmlns="http://www.w3.org/2000/svg"><path d="m7.70710678 17-3.85355339 3.8535534c-.31498243.3149824-.85355339.091899-.85355339-.3535534v-16c0-1.38071187 1.11928813-2.5 2.5-2.5h14c1.3807119 0 2.5 1.11928813 2.5 2.5v10c0 1.3807119-1.1192881 2.5-2.5 2.5zm-3.70710678 2.2928932 3.14644661-3.1464466c.09376819-.0937682.22094515-.1464466.35355339-.1464466h12c.8284271 0 1.5-.6715729 1.5-1.5v-10c0-.82842712-.6715729-1.5-1.5-1.5h-14c-.82842712 0-1.5.67157288-1.5 1.5z"/></svg>

<?xml version="1.0" encoding="UTF-8"?>
<svg width="24px" height="24px" viewBox="0 0 24 24" version="1.1" xmlns="http://www.w3.org/2000/svg" xmlns:xlink="http://www.w3.org/1999/xlink">
    <!-- Generator: Sketch 55.2 (78181) - https://sketchapp.com -->
    <title>message-square</title>
    <desc>Created with Sketch.</desc>
    <g id="message-square" stroke="none" stroke-width="1" fill="none" fill-rule="evenodd">
        <path d="M7.70710678,17 L3.85355339,20.8535534 C3.53857096,21.1685358 3,20.9454524 3,20.5 L3,4.5 C3,3.11928813 4.11928813,2 5.5,2 L19.5,2 C20.8807119,2 22,3.11928813 22,4.5 L22,14.5 C22,15.8807119 20.8807119,17 19.5,17 L7.70710678,17 Z M4,19.2928932 L7.14644661,16.1464466 C7.2402148,16.0526784 7.36739176,16 7.5,16 L19.5,16 C20.3284271,16 21,15.3284271 21,14.5 L21,4.5 C21,3.67157288 20.3284271,3 19.5,3 L5.5,3 C4.67157288,3 4,3.67157288 4,4.5 L4,19.2928932 Z" id="Shape" fill="#000000" fill-rule="nonzero"></path>
    </g>
</svg>
